X:1
T:Hark, ten thousand harps and voices
T:Hark, ten thousand harps and voices - Cashmere (Thomas Clark)
C:Thomas Clark
Z:Tune 646 from p486 of
Z:The Congregational
Z:Harmonist, Book 4, No. 27
Z:London: [c1836]
%%score [ 1 2 3 4 ]
L:1/8
M:4/4
K:C
V:1 treble nm="Soprano" snm="S."
V:2 treble nm="Alto" snm="A."
V:3 treble-8 transpose=-12 nm="Tenor" snm="T."
V:4 bass nm="Bass" snm="B."
V:1
 c2 G2 E2 G2 | (ce)(df) e2 c2 | d3 d (cB)(AG) | G2 ^F2 G4 | c3 B (BA) A2 | d3 c (cB) B2 | %6
w: Sa- viour, has- ten|thine _ ap- * pear- ing;|Bring, O bring _ the _|glo- rious day!|When, the aw- * ful|sum- mons hear- * ing,|
w: Hark, ten thou- sand|harps _ and _ voi- ces|Sound the note _ of _|praise a- bove!|Je- sus reigns, _ and|heav’n re- joi- * ces;|
w: King of glo- ry,|reign _ for _ e- ver,|Thine an e- * ver- *|las- ting crown:|No- thing from _ thy|love shall se- * ver|
 e3 d (dc)(Bd) | c2 B2 A4 | G3 F (EG)(cd) | e2 e2 d4 |!p! (ed)(cB) (Ac)(BA) | G3 F (F2 E2) | %12
w: Heav’n and earth _ shall _|pass a- way:|Then with gol- * den _|harps we’ll sing,|Glo- * ry, _ glo- * ry _|to our King, _|
w: Je- sus reigns, _ the _|God of love:|See, he fills _ yon _|a- zure throne;|Je- * sus _ rules _ the _|world a- lone, _|
w: Those whom thou _ hast _|made thine own;|Hap- py ob- * jects _|of thy grace,|Des- * tin’d _ to _ be- *|hold thy face, _|
!f! (Gc)(eg) (fe)(dc) | c2 B2 c4 |] %14
w: glo- * ry, _ glo- * ry _|to our King!|
w: Je- * sus _ rules _ the _|world a- lone.|
w: des- * tin’d _ to _ be- *|hold thy face.|
V:2
 G2 E2 C2 E2 | G2 G2 G2 G2 | G2 ^F2 G2 E2 | D2 D2 D4 | G3 G F2 F2 | A3 A G2 G2 | B3 B A2 F2 | %7
w: Sa- viour, has- ten|thine ap- pear- ing;|Bring, O bring the|glo- rious day!|When, the aw- ful|sum- mons hear- ing,|Heav’n and earth shall|
w: Hark, ten thou- sand|harps and voi- ces|Sound the note of|praise a- bove!|Je- sus reigns, and|heav’n re- joi- ces;|Je- sus reigns, the|
w: King of glo- ry,|reign for e- ver,|Thine an e- ver-|las- ting crown:|No- thing from thy|love shall se- ver|Those whom thou hast|
 E2 E2 E4 | B,2 B,2 (CE) G2 | G2 G2 G4 |!p! (GF) E2 (FA)(GF) | E3 D (D2 C2) |!f! E2 G2 G2 (FE) | %13
w: pass a- way:|Then with gol- * den|harps we’ll sing,|Glo- * ry, glo- * ry _|to our King, _|glo- ry, glo- ry _|
w: God of love:|See, he fills _ yon|a- zure throne;|Je- * sus rules _ the _|world a- lone, _|Je- sus rules the _|
w: made thine own;|Hap- py ob- * jects|of thy grace,|Des- * tin’d to _ be- *|hold thy face, _|des- tin’d to be- *|
 E2 D2 E4 |] %14
w: to our King!|
w: world a- lone.|
w: hold thy face.|
V:3
 e2 c2 G2 c2 | c2 B2 c2 e2 | d2 (Ad) d2 c2 | B2 A2 B4 | e3 d (dc) c2 | f3 e (ed) d2 | %6
w: Sa- viour, has- ten|thine ap- pear- ing;|Bring, O _ bring the|glo- rious day!|When, the aw- * ful|sum- mons hear- * ing,|
w: Hark, ten thou- sand|harps and voi- ces|Sound the _ note of|praise a- bove!|Je- sus reigns, _ and|heav’n re- joi- * ces;|
w: King of glo- ry,|reign for e- ver,|Thine an _ e- ver-|las- ting crown:|No- thing from _ thy|love shall se- * ver|
 g3 f (fe)(dB) | A2 ^G2 A4 | D3 G (Gc)(cB) | c2 c2 B4 | z8 | z8 |!f! (cG)(ce) (Bc) A2 | G2 G2 G4 |] %14
w: Heav’n and earth _ shall _|pass a- way:|Then with gol- * den _|harps we’ll sing,|||Glo- * ry, _ glo- * ry|to our King!|
w: Je- sus reigns, _ the _|God of love:|See, he fills _ yon _|a- zure throne;|||Je- * sus _ rules _ the|world a- lone.|
w: Those whom thou _ hast _|made thine own;|Hap- py ob- * jects _|of thy grace,|||Des- * tin’d _ to _ be-|hold thy face.|
V:4
 C,2 C,2 C,2 C,2 |"^6" E,2 G,2 C2 C,2 |"^6" B,,2"^#" D,2"^4""^3" G,2"^6""^5" C,2 | %3
w: Sa- viour, has- ten|thine ap- pear- ing;|Bring, O bring the|
w: Hark, ten thou- sand|harps and voi- ces|Sound the note of|
w: King of glo- ry,|reign for e- ver,|Thine an e- ver-|
"^64" D,2"^5#" D,2 G,,4 | (C,D,"^6"E,)"^7"E,"^64""^53" F,2 F,2 | %5
w: glo- rious day!|When, _ _ the aw- ful|
w: praise a- bove!|Je- * * sus reigns, and|
w: las- ting crown:|No- * * thing from thy|
 (D,E,"^6"F,)"^7"^F,"^64""^53" G,2 G,2 | (E,F,"^6"G,)"^7"^G,"^64""^53" A,2"^6" D,2 | %7
w: sum- * * mons hear- ing,|Heav’n _ _ and earth shall|
w: heav’n _ _ re- joi- ces;|Je- * * sus reigns, the|
w: love _ _ shall se- ver|Those _ _ whom thou hast|
"^64" E,2"^5#" E,2 A,,4 |"^6" B,,2 G,,2 C,2"^6" (E,G,) | %9
w: pass a- way:|Then with gol- den _|
w: God of love:|See, he fills yon _|
w: made thine own;|Hap- py ob- jects _|
"^Notes:Thomas Clark’s The Congregational Harmonist, or Clerk’s Companion was published in 32 numbered parts (eachconsisting of 18 pages), grouped into four books (eight parts per book). The pages are consecutively paginatedthroughout the work as a whole. This setting appears on the last page of no. 27.Volume 3 of The Congregational Harmonist (consisting of numbers 17-24) was advertised on p12 of No. 1 ofThe Musical World, on 18 March 1836. No. 28 of The Congregational Harmonist was advertised on p128 ofNo. 48, Vol. 4, of The Musical World, on 10 February 1837. Bearing these dates in mind, it seems likely thatno. 27 of The Congregational Harmonist was published during 1836.This setting is attributed ‘T. Clark’ in The Congregational Harmonist, where it is marked with a crossed circle, asymbol used in that book to indicate ‘originals’ (i.e. tunes not previously published).The order of parts in the source is Alto - Tenor - Air - Bass, with the Alto and Tenor parts given in the treble clef anoctave above sounding pitch.The second quaver of bar 13 in the tenor part, given here as a G, is printed in the source as the B a major thirdhigher.Only the first verse of the text is given in the source: subsequent verses have here been added editorially.The three verses given here are those printed as Hymn 136 in A New Selection of Hymns, especially adapted toPublic Worship, and intended as a supplement to Dr. Watts’ Psalms and Hymns, London: Printed for theProprietors, by J Haddon, Castle Street, City Road, 1828.These are verses 1, 6 and 7 of the seven verses written by Thomas Kelly." (CG,)"^6"(E,C,) G,4 | %10
w: harps _ we’ll _ sing,|
w: a- * zure _ throne;|
w: of _ thy _ grace,|
!p!"^[Inst.]""^53""^42" C,2 C,2 F,,2"^94""^83" F,,2 |"^64" G,,2"^--""^73" G,,2"^94""^83" C,4 | %12
w: ||
w: ||
w: ||
!f!"^[Voc.]" C,2 C,2"^43" (D,"^6"E,)"^6"(F,"^7"^F,) |"^64" G,2"^53" G,,2 C,4 |] %14
w: Glo- ry, glo- * ry _|to our King!|
w: Je- sus rules _ the _|world a- lone.|
w: Des- tin’d to _ be- *|hold thy face.|

